WorldWind/resources/milstd2525/tacgrp/g-gpgpuub-----x.svg

<?xml version="1.0" encoding="UTF-8" standalone="no"?>
<!-- SVG content generated using Symbology Configuration Management System (SCMS) -->

<!-- Systematic Software Engineering Ltd. - www.systematic.co.uk - do not remove  -->

<svg
    xmlns:dc="http://purl.org/dc/elements/1.1/"
    xmlns:cc="http://creativecommons.org/ns#"
    xmlns:rdf="http://www.w3.org/1999/02/22-rdf-syntax-ns#"
    xmlns:svg="http://www.w3.org/2000/svg"
    xmlns="http://www.w3.org/2000/svg"
    xmlns:sodipodi="http://sodipodi.sourceforge.net/DTD/sodipodi-0.dtd"
    xmlns:inkscape="http://www.inkscape.org/namespaces/inkscape"
    id="G*GPGPUUB-****X"
    width="340.20001"
    height="378.875"
    viewBox="0 0 340.20001 378.875"
    version="1.1"
    inkscape:version="0.48.2 r9819"
    sodipodi:docname="g-gpgpuub-----x.svg">
    <metadata
        id="metadata14">
        <rdf:RDF>
            <cc:Work
                rdf:about="">
                <dc:format>image/svg+xml</dc:format>
                <dc:type
                    rdf:resource="http://purl.org/dc/dcmitype/StillImage"/>
            </cc:Work>
        </rdf:RDF>
    </metadata>
    <defs
        id="defs12"/>
    <sodipodi:namedview
        pagecolor="#ffffff"
        bordercolor="#666666"
        borderopacity="1"
        objecttolerance="10"
        gridtolerance="10"
        guidetolerance="10"
        inkscape:pageopacity="0"
        inkscape:pageshadow="2"
        inkscape:window-width="640"
        inkscape:window-height="480"
        id="namedview10"
        showgrid="false"
        inkscape:zoom="0.59"
        inkscape:cx="170"
        inkscape:cy="188.875"
        inkscape:window-x="0"
        inkscape:window-y="0"
        inkscape:window-maximized="0"
        inkscape:current-layer="G*GPGPUUB-****X"/>
    <g
        id="g3"
        style="fill:#ffffff"
        transform="translate(-30,-10)">
        <svg
            viewBox="0 0 400 400"
            id="_0.G-GPGPUUB-----X"
            width="400"
            height="400"
            version="1.1"
            style="fill:#ffffff"
            inkscape:version="0.48.2 r9819">
            <g
                transform="matrix(7,0,0,7,30,10)"
                id="g6"
                style="fill:#ffffff">
                <path
                    d="M 48.6,39.725 24.061,54.125 0,39.725 z M 7.875,1.25 l 0,-1.25 31.75,0 0,1.25 z m 4,26.875 0,-12.125 4.518,0 c 2.656,0 3.982,1.021 3.982,3.061 0,1.121 -0.551,1.982 -1.654,2.582 1.519,0.48 2.279,1.482 2.279,3.002 0,2.32 -1.51,3.48 -4.533,3.48 z m 1.5,-7 2.721,0 c 0.605,0 1.107,-0.039 1.51,-0.121 0.848,-0.281 1.27,-0.846 1.27,-1.693 0,-0.887 -0.402,-1.471 -1.209,-1.754 -0.361,-0.121 -0.965,-0.182 -1.813,-0.182 l -2.479,0 z m 0,5.5 3.063,0 1.141,0 c 0.602,-0.119 1.123,-0.457 1.563,-1.016 0.121,-0.398 0.18,-0.717 0.18,-0.957 0,-0.438 -0.119,-0.857 -0.359,-1.256 C 18.52,22.799 17.6,22.5 16.197,22.5 l -2.822,0 z m 10.25,13.221 0,-39.846 1.125,0 0,39.846 z m 13.041,-16.08 1.674,0.418 c -0.754,2.711 -2.422,4.066 -5,4.066 -2.5,0 -4.188,-1.041 -5.061,-3.127 -0.438,-1.041 -0.654,-2.143 -0.654,-3.307 0,-2.645 0.912,-4.467 2.738,-5.471 0.871,-0.48 1.863,-0.721 2.975,-0.721 2.539,0 4.125,1.193 4.762,3.576 l -1.615,0.363 C 35.965,17.855 34.91,17 33.316,17 c -2.711,0 -4.066,1.605 -4.066,4.816 0,3.373 1.295,5.059 3.887,5.059 1.953,0 3.131,-1.035 3.529,-3.109 z"
                    id="path8"
                    style="fill:#ffffff"
                    inkscape:connector-curvature="0"/>
            </g>
        </svg>
    </g>
</svg>

<?xml version="1.0" encoding="UTF-8" standalone="no"?>
<!-- SVG content generated using Symbology Configuration Management System (SCMS) -->

<!-- Systematic Software Engineering Ltd. - www.systematic.co.uk - do not remove  -->

<svg
   xmlns:dc="http://purl.org/dc/elements/1.1/"
   xmlns:cc="http://creativecommons.org/ns#"
   xmlns:rdf="http://www.w3.org/1999/02/22-rdf-syntax-ns#"
   xmlns:svg="http://www.w3.org/2000/svg"
   xmlns="http://www.w3.org/2000/svg"
   xmlns:sodipodi="http://sodipodi.sourceforge.net/DTD/sodipodi-0.dtd"
   xmlns:inkscape="http://www.inkscape.org/namespaces/inkscape"
   id="G*GPGPUUB-****X"
   width="400px"
   height="400px"
   viewBox="0 0 400 400"
   version="1.1"
   inkscape:version="0.48.2 r9819"
   sodipodi:docname="g-gpgpuub-----x.svg">
  <metadata
     id="metadata14">
    <rdf:RDF>
      <cc:Work
         rdf:about="">
        <dc:format>image/svg+xml</dc:format>
        <dc:type
           rdf:resource="http://purl.org/dc/dcmitype/StillImage" />
      </cc:Work>
    </rdf:RDF>
  </metadata>
  <defs
     id="defs12" />
  <sodipodi:namedview
     pagecolor="#ffffff"
     bordercolor="#666666"
     borderopacity="1"
     objecttolerance="10"
     gridtolerance="10"
     guidetolerance="10"
     inkscape:pageopacity="0"
     inkscape:pageshadow="2"
     inkscape:window-width="640"
     inkscape:window-height="480"
     id="namedview10"
     showgrid="false"
     inkscape:zoom="0.59"
     inkscape:cx="200"
     inkscape:cy="200"
     inkscape:window-x="0"
     inkscape:window-y="0"
     inkscape:window-maximized="0"
     inkscape:current-layer="G*GPGPUUB-****X" />
  <g
     id="g3"
     style="fill:#ffffff">
    <svg
       viewBox="0 0 400 400"
       id="_0.G-GPGPUUB-----X"
       width="400px"
       height="400px"
       version="1.1"
       style="fill:#ffffff">
      <g
         transform="translate(30 10) scale(7 7)"
         id="g6"
         style="fill:#ffffff">
        <path
           d="M48.6 39.725 L24.061 54.125 L0 39.725 zM7.875 1.25 L7.875 0 L39.625 0 L39.625 1.25      zM11.875 28.125 L11.875 16 L16.393 16 C19.049 16 20.375 17.021 20.375 19.061      C20.375 20.182 19.824 21.043 18.721 21.643 C20.24 22.123 21 23.125 21 24.645      C21 26.965 19.49 28.125 16.467 28.125 zM13.375 21.125 L16.096 21.125 C16.701      21.125 17.203 21.086 17.606 21.004 C18.454 20.723 18.876 20.158 18.876      19.311 C18.876 18.424 18.474 17.84 17.667 17.557 C17.306 17.436 16.702 17.375      15.854 17.375 L13.375 17.375 zM13.375 26.625 L16.438 26.625 L17.579 26.625      C18.181 26.506 18.702 26.168 19.142 25.609 C19.263 25.211 19.322 24.892 19.322      24.652 C19.322 24.214 19.203 23.795 18.963 23.396 C18.52 22.799 17.6 22.5      16.197 22.5 L13.375 22.5 zM23.625 39.846 L23.625 0 L24.75 0 L24.75 39.846      zM36.666 23.766 L38.34 24.184 C37.586 26.895 35.918 28.25 33.34 28.25 C30.84      28.25 29.152 27.209 28.279 25.123 C27.841 24.082 27.625 22.98 27.625 21.816      C27.625 19.171 28.537 17.349 30.363 16.345 C31.234 15.865 32.226 15.624 33.338      15.624 C35.877 15.624 37.463 16.817 38.1 19.2 L36.485 19.563 C35.965 17.855      34.91 17 33.316 17 C30.605 17 29.25 18.605 29.25 21.816 C29.25 25.189 30.545      26.875 33.137 26.875 C35.09 26.875 36.268 25.84 36.666 23.766 z"
           id="path8"
           style="fill:#ffffff" />
      </g>
    </svg>
  </g>
</svg>
